modules/material-icons/icons/rotate-ccw.svg

<?xml version="1.0" encoding="UTF-8" standalone="no"?>
<svg
   xmlns:dc="http://purl.org/dc/elements/1.1/"
   xmlns:cc="http://creativecommons.org/ns#"
   xmlns:rdf="http://www.w3.org/1999/02/22-rdf-syntax-ns#"
   xmlns:svg="http://www.w3.org/2000/svg"
   xmlns="http://www.w3.org/2000/svg"
   version="1.1"
   id="svg2"
   viewBox="0 0 480 480"
   height="480"
   width="480">
  <metadata
     id="metadata10">
    <rdf:RDF>
      <cc:Work
         rdf:about="">
        <dc:format>image/svg+xml</dc:format>
        <dc:type
           rdf:resource="http://purl.org/dc/dcmitype/StillImage" />
        <dc:title></dc:title>
      </cc:Work>
    </rdf:RDF>
  </metadata>
  <defs
     id="defs8" />
  <path
     id="path4"
     d="M 158.27703,140.6936 28.799059,270.37137 158.47684,399.84934 288.15462,270.37137 158.27703,140.6936 Z M 85.345763,270.37137 158.47684,197.2403 231.4081,270.37137 158.27703,343.50245 85.345763,270.37137 Z M 398.45066,145.28927 C 363.48362,110.12241 317.32712,92.53898 271.37043,92.53898 l 0,-64.73898 -84.72015,84.72015 84.72015,84.72015 0,-64.73898 c 35.76629,0 71.53258,13.58719 98.90678,40.96139 54.54859,54.54859 54.54859,143.26497 0,197.81356 -27.3742,27.3742 -63.14049,40.96139 -98.90678,40.96139 -19.38173,0 -38.76346,-4.19604 -56.74651,-12.18851 l -29.77194,29.77194 C 211.82656,444.60716 241.5985,452.2 271.37043,452.2 c 45.95669,0 92.11319,-17.58343 127.08023,-52.75028 70.33371,-70.1339 70.33371,-184.02656 0,-254.16045 z" />
</svg>

<svg xmlns="http://www.w3.org/2000/svg" height="480" width="480"><path d="M158.277 140.694L28.799 270.37 158.477 399.85l129.678-129.478-129.878-129.677zM85.346 270.37l73.13-73.13 72.932 73.13-73.131 73.131-72.931-73.13zM398.45 145.29c-34.967-35.167-81.124-52.75-127.08-52.75V27.8l-84.72 84.72 84.72 84.72v-64.739c35.766 0 71.532 13.588 98.906 40.962 54.549 54.548 54.549 143.265 0 197.813-27.374 27.374-63.14 40.962-98.907 40.962-19.381 0-38.763-4.196-56.746-12.189l-29.772 29.772c26.975 14.786 56.746 22.379 86.518 22.379 45.957 0 92.114-17.583 127.08-52.75 70.334-70.134 70.334-184.027 0-254.16z"/></svg>
